X:1
T:Title
%%score { ( 1 4 5 ) | ( 2 3 ) }
L:1/8
M:6/4
K:Bb
V:1 treble nm="Grand Piano"
V:4 treble 
V:5 treble 
V:2 bass 
V:3 bass 
V:1
 z6 z4 F2 | F2 F2 F2 F2 F2 F2 | F2 [DF]2 [EF]2 F2 F2 F2 | F2 F2 F2 F2 F2 F2 | %4
 F2 [A,EF]2 [A,EF]2 [A,EF]2 .[EF]4 | [DFd]2 d2 d2 [C^FA]2 B2 A2 | [B,EG]2 G2 G2 G2- [EG]2 G2 | %7
 [Ge]2 [Ge]2 [Gd]2 [Gc]2 [Gc]2 [GB]2 | %8
[M:5/4] A2 A2 B2 c4[Q:1/4=118][Q:1/4=116][Q:1/4=115][Q:1/4=113][Q:1/4=111][Q:1/4=109][Q:1/4=108][Q:1/4=106][Q:1/4=104][Q:1/4=102][Q:1/4=101][Q:1/4=99][Q:1/4=97][Q:1/4=95][Q:1/4=94][Q:1/4=92][Q:1/4=120] | %9
[M:3/4] z2 d4 | _d=d e2 d2 | =B2 d2 c2 |[M:2/4] z2 G2- |[M:1/4] G2 | z2 |[M:3/4] e6- | e6 | d6- | %18
[M:2/4] d4 |[M:1/4] F2 |[M:3/4] d4 z2 | e2 d2 =B2 | d2 c2 B2 |[M:2/4] G4 |[M:1/4] G2 | %25
[M:3/4] [Ge]2 [Ge]2 [Gd]2 | [Gc]2 [Gc]2 [GB]2 | %27
 [=Ed]2 [EB]2 [_Ec]2[Q:1/4=118][Q:1/4=116][Q:1/4=115][Q:1/4=113][Q:1/4=111][Q:1/4=109][Q:1/4=108][Q:1/4=106][Q:1/4=104][Q:1/4=102][Q:1/4=101][Q:1/4=99][Q:1/4=97][Q:1/4=95][Q:1/4=94][Q:1/4=92] | %28
[M:2/4] [DB]4 |] %29
V:2
 z6 z4 [F,B,D]2 | [F,B,D]2 [G,B,D]2 [A,B,D]2 [G,B,D]2 [D,B,D]2 [E,B,D]2 | z6 .[A,E]6 | %3
 [F,B,D]2 [G,B,D]2 [A,B,D]2 [G,B,D]2 [D,B,D]2 [E,B,D]2 | [F,A,E]2 =B,,2 C,2 z2 A,2 F2 | %5
 z2[K:treble] [DF]2 [DF]2[K:bass] z2[K:treble] [C^F]2 [CF]2 | z2 [B,E]2 [G,=B,F]2 z2 .C4 | %7
 [C,C]2 [C,C]2 [D,=B,]2 [E,C]2 [E,C]2 [=E,C]2 |[M:5/4] [F,CF]2 [F,CF]2 [G,CE]2 [F,A,E]4 | %9
[M:3/4] z2 B,,2 [F,B,]2 | z2 G,,2[K:treble] [G,=B,F]2 | z2[K:bass] C,2 [G,CE]2 |[M:2/4] z2 C,2 | %13
[M:1/4] G,2 | B2 |[M:3/4][K:bass] C,2 F,2[K:treble] cA | F,,2 F,2 A2 | B,,2 F,2 A2 | %18
[M:2/4] F,,2 [F,B,]2 |[M:1/4] z2 |[M:3/4] B,,2 [F,B,]2 z2 | G,,2[K:treble] [G,=B,F]2 z2 | %22
 C,2 [G,CE]2 z2 |[M:2/4] C,2 [G,C]2 |[M:1/4] G,2 |[M:3/4] [C,C]2 [C,C]2 [D,=B,]2 | %26
 [E,C]2 [E,C]2 [=E,C]2 | [C,B,]2 [C,G,]2 [F,A,]2 |[M:2/4] [B,,F,B,]4 |] %29
V:3
 x12 | x12 | [F,A,E]2 [=B,,A,]2 [C,A,]2 F,2- [F,A,E]2 [F,A,E]2 | x12 | z6 .F,6 | %5
 [B,,,B,,]6[K:treble][K:bass] [D,,D,]6[K:treble] | .[E,,E,]6 .[C,,C,]6 | x12 |[M:5/4] x10 | %9
[M:3/4] x6 | x4[K:treble] x2 | x2[K:bass] x4 |[M:2/4] x4 |[M:1/4] x2 | x2 | %15
[M:3/4][K:bass] x4[K:treble] x2 | x6 | x6 |[M:2/4] x4 |[M:1/4] x2 |[M:3/4] x6 | x2[K:treble] x4 | %22
 x6 |[M:2/4] x4 |[M:1/4] x2 |[M:3/4] x6 | x6 | x6 |[M:2/4] x4 |] %29
V:4
 x12 | x12 | x12 | x12 | x12 | x12 | z6 .[CE]6 | x12 |[M:5/4] x10 |[M:3/4] F2 z2 D2 | x6 | x6 | %12
[M:2/4] B2 z2 |[M:1/4] [CE]2 | x2 |[M:3/4] A2- [A,EA]2 z2 | G2 [A,EF]2 z2 | x6 |[M:2/4] G4 | %19
[M:1/4] x2 |[M:3/4] z2 D2 _d=d | x6 | x6 |[M:2/4] z2 E2 |[M:1/4] x2 |[M:3/4] x6 | x6 | x6 | %28
[M:2/4] x4 |] %29
V:5
 x12 | x12 | x12 | x12 | x12 | x12 | x12 | x12 |[M:5/4] x10 |[M:3/4] x6 | x6 | x6 |[M:2/4] x4 | %13
[M:1/4] x2 | x2 |[M:3/4] x6 | x6 | G2 [B,DF]2 z2 |[M:2/4] z2 D2 |[M:1/4] x2 |[M:3/4] x6 | x6 | x6 | %23
[M:2/4] x4 |[M:1/4] x2 |[M:3/4] x6 | x6 | x6 |[M:2/4] x4 |] %29

